resources/svg/image-alt-o.svg

<svg width="15" height="15" viewBox="0 0 15 15" fill="none" xmlns="http://www.w3.org/2000/svg">
<path d="M10 3.5H11M14.5 9.49347L11.5 6.49543L8.5 9.49347L4.5 4.49673L0.5 9.49999M1.5 0.5H13.5C14.0523 0.5 14.5 0.947715 14.5 1.5V13.5C14.5 14.0523 14.0523 14.5 13.5 14.5H1.5C0.947716 14.5 0.5 14.0523 0.5 13.5V1.5C0.5 0.947716 0.947715 0.5 1.5 0.5Z" stroke="black"/>
</svg>

<svg viewBox="0 0 15 15" fill="none" xmlns="http://www.w3.org/2000/svg" fill="currentColor"><path d="M10 3.5h1m3.5 5.993l-3-2.998-3 2.998-4-4.996L.5 9.5m1-9h12a1 1 0 011 1v12a1 1 0 01-1 1h-12a1 1 0 01-1-1v-12a1 1 0 011-1z" stroke="currentColor"/></svg>
